assets/web/icons/grid.svg

<svg width="24" height="24" viewBox="0 0 24 24" fill="none" xmlns="http://www.w3.org/2000/svg">
<path d="M4 11C3.71667 11 3.47917 10.9042 3.2875 10.7125C3.09583 10.5208 3 10.2833 3 10V4C3 3.71667 3.09583 3.47917 3.2875 3.2875C3.47917 3.09583 3.71667 3 4 3H10C10.2833 3 10.5208 3.09583 10.7125 3.2875C10.9042 3.47917 11 3.71667 11 4V10C11 10.2833 10.9042 10.5208 10.7125 10.7125C10.5208 10.9042 10.2833 11 10 11H4ZM9 9V5H5V9H9Z" fill="currentColor"/>
<path d="M14 21C13.7167 21 13.4792 20.9042 13.2875 20.7125C13.0958 20.5208 13 20.2833 13 20V14C13 13.7167 13.0958 13.4792 13.2875 13.2875C13.4792 13.0958 13.7167 13 14 13H20C20.2833 13 20.5208 13.0958 20.7125 13.2875C20.9042 13.4792 21 13.7167 21 14V20C21 20.2833 20.9042 20.5208 20.7125 20.7125C20.5208 20.9042 20.2833 21 20 21H14ZM19 19V15H15V19H19Z" fill="currentColor"/>
<path d="M4 21C3.71667 21 3.47917 20.9042 3.2875 20.7125C3.09583 20.5208 3 20.2833 3 20V14C3 13.7167 3.09583 13.4792 3.2875 13.2875C3.47917 13.0958 3.71667 13 4 13H10C10.2833 13 10.5208 13.0958 10.7125 13.2875C10.9042 13.4792 11 13.7167 11 14V20C11 20.2833 10.9042 20.5208 10.7125 20.7125C10.5208 20.9042 10.2833 21 10 21H4ZM9 19V15H5V19H9Z" fill="currentColor"/>
<path d="M14 11C13.7167 11 13.4792 10.9042 13.2875 10.7125C13.0958 10.5208 13 10.2833 13 10V4C13 3.71667 13.0958 3.47917 13.2875 3.2875C13.4792 3.09583 13.7167 3 14 3H20C20.2833 3 20.5208 3.09583 20.7125 3.2875C20.9042 3.47917 21 3.71667 21 4V10C21 10.2833 20.9042 10.5208 20.7125 10.7125C20.5208 10.9042 20.2833 11 20 11H14ZM19 9V5H15V9H19Z" fill="currentColor"/>
</svg>

<svg xmlns="http://www.w3.org/2000/svg" width="24" height="24" fill="currentColor" viewBox="0 0 24 24">
  <path d="M4 11a.967.967 0 0 1-.712-.287A.968.968 0 0 1 3 10V4c0-.283.096-.52.288-.712A.968.968 0 0 1 4 3h6a.97.97 0 0 1 .713.288A.968.968 0 0 1 11 4v6c0 .283-.096.52-.287.713A.968.968 0 0 1 10 11H4Zm5-2V5H5v4h4Zm5 12a.968.968 0 0 1-.713-.288A.968.968 0 0 1 13 20v-6c0-.283.096-.52.287-.713A.968.968 0 0 1 14 13h6a.97.97 0 0 1 .712.287c.192.192.288.43.288.713v6c0 .283-.096.52-.288.712A.968.968 0 0 1 20 21h-6Zm5-2v-4h-4v4h4ZM4 21a.967.967 0 0 1-.712-.288A.968.968 0 0 1 3 20v-6a.97.97 0 0 1 .288-.713A.967.967 0 0 1 4 13h6c.283 0 .52.096.713.287.191.192.287.43.287.713v6a.97.97 0 0 1-.287.712A.968.968 0 0 1 10 21H4Zm5-2v-4H5v4h4Zm5-8a.968.968 0 0 1-.713-.287A.968.968 0 0 1 13 10V4a.97.97 0 0 1 .287-.712A.968.968 0 0 1 14 3h6c.283 0 .52.096.712.288A.965.965 0 0 1 21 4v6a.97.97 0 0 1-.288.713A.968.968 0 0 1 20 11h-6Zm5-2V5h-4v4h4Z"/>
</svg>
